X:19108
T:Xirandiya (CT 43)
C:Trad.
D:Felpeyu: Tierra
Z:Cancioneru de Torner 43
M:2/4
L:1/8
Q:1/4=160
K:D
 | A B c d | e2 de | c3/2B/ A2 | A B c d | e2 de | c2 |
 | A B c d | e2 de | c c e d | c3/2B/ c  d | c2 B A | A2 |
